Hatter-kde/actions/16/list-add.svg

<svg xmlns="http://www.w3.org/2000/svg" viewBox="0 0 16 16">
  <defs id="defs3051">
    <style type="text/css" id="current-color-scheme">
      .ColorScheme-Text {
        color:#363636;
      }
      </style>
  </defs>
 <path style="fill:currentColor;fill-opacity:1;stroke:none" 
     d="M 7 3.0058594 L 7 8 L 2 8 L 2 8.9980469 L 7 8.9980469 L 7 14.007812 L 8 14.007812 L 8 8.9980469 L 13 8.9980469 L 13 8 L 8 8 L 8 3.0058594 L 7 3.0058594 z "
     class="ColorScheme-Text"
     />
</svg>

<?xml version="1.0" encoding="UTF-8"?>
<svg viewBox="0 0 16 16" xmlns="http://www.w3.org/2000/svg">
 <defs id="defs3051">
  <style id="current-color-scheme" type="text/css">.ColorScheme-Text {
        color:#363636;
      }</style>
 </defs>
 <path class="ColorScheme-Text" d="m7 3.0059v4.9941h-5v0.99805h5v5.0098h1v-5.0098h5v-0.99805h-5v-4.9941h-1z" fill="currentColor"/>
</svg>
